!!!OTL: Mailied.
!!!OTL-incipit: DER MAI TRITT EIN MIT FREUDEN
!!!ARE: Europa, Mitteleuropa, Deutschland, Niederrhein
!!!SCT: Z1262
!!!TXL: @@DE
!!!YEM: Copyright 1995, estate of Helmut Schaffrath.
**kern	**text
*ICvox	*
*M3/4	*
*k[b-e-]	*
*B-:	*
!LO:TX:a:t=Vom Niederrhein.	!
{4f	Der
=1	=1
4.b-	Mai
8cc	tritt
8dd	ein
8b-	mit
=2	=2
4.f	Freu-
8d}	-den,
{8e-L	es
8fJ	.
=3	=3
4.g	flieht
8a	der
8b-/	Winter
8g	.
=4	=4
(>4f	kalt,
4e-)}	.
{4d	die
=5	=5
4e-	Blümlein
4g	.
8f	auf
8e-	der
=6	=6
4d	Hai-
4f}	-den
{4b-	die
=7	=7
8ddL	blühn
8ccJ	.
4b-	man-
4a	-nig-
=8	=8
2b-}	-falt.
{8b-L	Ein
8ccJ	.
=9	=9
4dd	Rö-
4b-	-ſe-
4ff	-lein
=10	=10
4cc	ʒar-
4b-}	-te,
{4a	von
=11	=11
4b-	Far-
4g	-be
4cc	ſo
=12	=12
(4a	ſchön,
4f)}	.
{4f	blüht
=13	=13
(4.g	in
8a)	.
8b-/	meinem
8g	.
=14	=14
4f	Gar-
4b-}	-ten,
{4dd	vor
=15	=15
8ddL	al-
8ccJ	.
4b-	-len
4a	ich's
=16	=16
2b-}	krön'!
==	==
!!!AGN: Natur und Welt
!!!ONB: ESAC (Essen Associative Code) Database: ZUCCAL
!!!AMT: simple triple
!!!AIN: vox
!!!EED: Helmut Schaffrath
!!!EEV: 1.0
!!!RDF**kern: >= above
!!!GTL: VI. Natur und Welt.
!!!URL-scan: http://digitale-sammlungen.de/de/view/bsb11160573?page=486
!!!ENC: Anna Maria Matuszewska
!!!EEV: 2025/02/06
*-	*-
